X:30
T:Branle de Bourgogne
R:Branle double
C:Jacques Moderne (16th century)
O:France
Z:Transcrit et/ou corrig par Michel BELLON - 2006-11-29
Z:Pour toute observation mailto:galouvielle@free.fr
M:C
L:1/4
Q:1/4=200
K:C
B A/2B/2 cc|B A/2B/2 cc|GGG B|A2A2:|
GGGA|A G/2F/2 ED|GGGB|A2A2:|
%%footer $D   Galouvielle-MBe 2007 \nBransle (France)
